**kern	**text
*clefG2	*
*k[f#c#g#d#a#]	*
*M4/4	*
*MM186	*
=1	=1
1r	.
=2	=2
1r	.
=3	=3
1r	.
=4	=4
1r	.
=5	=5
1r	.
=6	=6
1r	.
=7	=7
1r	.
=8	=8
2r	.
4An	な
4dn	も
=9	=9
8eL	な
8eJ	い
8r	.
8f#	じ
8eL	だ
8eJ	い
8r	.
8f#	の
=10	=10
4e	しゅ
8dnL	ら
8dJ	く
4d	の
8AnL	な
8dJ	も
=11	=11
8eL	な
8eJ	い
8r	.
8f#	お
4e	さ
8eL	な
8f#J	い
=12	=12
4e	しょ
8dnL	ね
8dJ	ん
4d	の
4r	.
=13	=13
4.e	だ
8dn	れ
4d	も
8r	.
8d	し
=14	=14
4.e	ら
8dn	な
4d'	い
4f#	お
=15	=15
4e	と
8f#L	ぎ
[8eJ	ば
8e]	.
8r	.
8dnL	な
8dJ	し
=16	=16
2r	.
4An	う
4dn	ま
=17	=17
4e	れ
8r	.
8f#	つ
4e	い
8r	.
8f#	た
=18	=18
8eL	と
8eJ	き
4dn	か
4d	ら
8AnL	い
8dJ	み
=19	=19
4e	こ
8r	.
8f#	お
4e	に
8r	.
8f#	の
=20	=20
4e	こ
8.dnL	と
16dJk	し
4d'	て
4r	.
=21	=21
4.e	そ
8dn	の
4d	み
8r	.
8d	に
=22	=22
4.e	あ
8dn	ま
4d	る
4f#	ば
=23	=23
4e	つ
8f#L	お
8eJ	う
4r	.
8dnL	け
8dJ	た
=24	=24
2r	.
4f#	か
4an	な
=25	=25
4b	し
8ddnL	い
[8anJ	こ
8aL]	.
8bJ	と
4f#	わ
=26	=26
2r	.
4f#	な
4an	に
=27	=27
4e	も
8f#L	な
[8eJ	い
8eL]	.
8dnJ	け
4f#	ど
=28	=28
2r	.
4f#	ゆ
4an	う
=29	=29
4b	や
4ddn	け
4an	こ
4b	や
=30	=30
4f#	け
4r	.
4e	て
4dn	お
=31	=31
4e	ひ
4f#	か
4an	れ
4f#	て
=32	=32
4a#	さ
4r	.
4f#	し
4an	ら
=33	=33
8bL	な
8b	い
8f#	し
8anJ	ら
16.bLL	な
[32bK	い
16b]	.
16bJJ	ぼ
8aL	く
8f#J	わ
=34	=34
8eL	な
16eL	に
16dnJJ	も
8eL	し
8f#J	ら
16dKL	な
8.d'J	い
8BL	し
8dJ	か
=35	=35
4e	ら
8eL	れ
8f#J	た
8an'L	あ
8f#	と
8e	の
8dnJ	や
=36	=36
4e	さ
8eL	し
8dnJ	さ
4f#'	も
8f#L	あ
8anJ	め
=37	=37
4b	あ
8f#L	が
8anJ	り
4b	の
8bL	て
8ff#J	の
=38	=38
8eeL	ぬ
8ff#	く
8ee	も
8ddnJ	り
4b'	の
8bL	で
8ddJ	も
=39	=39
16eeLL	ほ
16ee	ん
16ee	と
16ddnJJ	わ
16eeLL	ほ
16ee	ん
16ee	と
16ddJJ	わ
16eeLL	ほ
16ee	ん
16ee	と
16ddJJ	わ
16eeLL	ほ
16ee	ん
16ee	と
16ddJJ	に
=40	=40
8bL	さ
8ddn	む
8b	い
8anJ	ん
4b'	だ
8f#L	し
8aJ	な
=41	=41
8bL	な
8b	い
8f#	し
8anJ	な
16.bLL	な
[32bK	い
16b]	.
16bJJ	ぼ
8aL	く
8f#J	わ
=42	=42
8eL	な
16eL	ん
16dnJJ	で
8eL	し
8f#J	な
16dKL	な
8.d'J	い
8BL	ゆ
8dJ	め
=43	=43
4e	の
8eL	ひ
8f#J	と
8an'L	つ
8f#	も
8e	み
8dnJ	れ
=44	=44
16eKL	な
8.e'J	い
8eL	く
8dnJ	せ
4f#'	に
8f#L	だ
8anJ	れ
=45	=45
4b	も
8f#L	し
8anJ	ら
8bL	な
8b	い
8b	お
8ff#J	と
=46	=46
8ee'L	ぎ
8ff#	ば
8ee	な
8ddnJ	し
4b'	わ
8bL	ゆ
8ddJ	う
=47	=47
8eeL	や
16eeL	け
16ddnJJ	の
8eeL	な
16eeL	か
16ddJJ	に
8eeL	す
16eeL	う
16ddJJ	こ
8eeL	ま
16eeL	れ
16ddJJ	て
=48	=48
8bL	き
8ddn	れ
8b	て
8anJ	え
4b'	た
4r	.
=49	=49
1r	.
=50	=50
1r	.
=51	=51
1r	.
=52	=52
1r	.
=53	=53
1r	.
=54	=54
1r	.
=55	=55
1r	.
=56	=56
2r	.
4An	は
4dn	き
=57	=57
8.eL	だ
16eJk	す
8r	.
8f#	よ
4e	お
8r	.
8f#	な
=58	=58
4e	ぼ
8dnL	りょ
8dJ	く
4d	と
8AnL	さ
8dJ	げ
=59	=59
8e	す
4e	ん
8f#	だ
4.e	め
8f#	の
=60	=60
8eL	ま
8e	い
8dn	に
8dJ	ち
4d	に
4r	.
=61	=61
4.e	き
8dn	み
4d	わ
8r	.
8d	い
=62	=62
4e	つ
8r	.
8dn	し
4d'	か
4f#	そ
=63	=63
4e	こ
8f#L	の
[8eJ	た
8e]	.
8r	.
8dnL	て
8dJ	た
=64	=64
2r	.
4An	は
4dn	な
=65	=65
4e	し
8r	.
8f#	か
4e	け
8r	.
8f#	ちゃ
=66	=66
8eL	だ
8e'	め
8dn	な
8dJ	の
4d	に
8AnL	き
8dJ	み
=67	=67
4e	の
8r	.
8f#	な
4e	ま
8eL	え
8f#J	が
=68	=68
8eL	し
8e	り
8dn	た
8dJ	い
4d'	な
8r	.
8d	ご
=69	=69
4e'	め
8r	.
8dn	ん
4d	ね
8r	.
8d	な
=70	=70
4e'	ま
8r	.
8dn	え
4d	も
4f#	し
=71	=71
4e	た
8f#L	も
[8eJ	な
16eKL]	.
8.e'J	い
8dnL	ん
8dJ	だ
=72	=72
2r	.
4f#	ぼ
4an	く
=73	=73
4b	の
8ddn'L	い
[8anJ	ば
8aL]	.
8bJ	しょ
4f#	わ
=74	=74
2r	.
4f#	ど
4an	こ
=75	=75
4e	に
8f#L	も
8eJ	な
8eL	い
8dnJ	の
4f#	に
=76	=76
2r	.
4f#	い
4an	い
=77	=77
4b	しょ
4ddn'	に
4an	か
4b	え
=78	=78
4f#	ろ
4r	.
4e	て
4dn	お
=79	=79
4e	ひ
4f#	か
4an	れ
4f#	て
=80	=80
4a#	さ
4r	.
4f#	し
4an	ら
=81	=81
8bL	な
8b	い
8f#	し
8anJ	ら
16.bLL	な
[32bK	い
16b]	.
16bJJ	ぼ
8aL	く
8f#J	わ
=82	=82
8eL	な
16eL	に
16dnJJ	も
8eL	し
8f#J	ら
16dKL	な
8.d'J	い
8BL	き
8dJ	み
=83	=83
4e	わ
4e	も
8an'L	こ
8f#	ど
8e	も
8dnJ	じゃ
=84	=84
8eL	な
8e	い
8e	こ
8dnJ	と
4f#'	も
8f#L	な
8anJ	れ
=85	=85
8bL	な
8b	い
8f#	ひ
8anJ	と
4b	の
8bL	て
8ff#J	の
=86	=86
8eeL	ぬ
8ff#	く
8ee	も
8ddnJ	り
4b'	わ
8bL	た
8ddJ	だ
=87	=87
16eeLL	ほ
16ee	ん
16ee	と
16ddnJJ	に
16eeLL	ほ
16ee	ん
16ee	と
16ddJJ	に
16eeLL	ほ
16ee	ん
16ee	と
16ddJJ	に
16eeLL	ほ
16ee	ん
16ee	と
16ddJJ	の
=88	=88
8bL	こ
8ddn	と
8b	な
8anJ	ん
4b'	だ
8f#L	や
8aJ	め
=89	=89
16bKL	な
8.b'J	い
8f#L	や
8anJ	め
16.bLL	な
[32bK	い
16b]	.
16bJJ	き
8aL	み
8f#J	わ
=90	=90
8eL	な
16eL	ん
16dnJJ	で
8eL	や
8f#J	め
16dKL	な
8.d'J	い
8BL	み
8d'J	つ
=91	=91
4e	か
8eL	れ
8f#J	ば
8anL	こ
8f#	ろ
8e	さ
8dnJ	れ
=92	=92
16eKL	ちゃ
8.e'J	う
8eL	く
8dnJ	せ
4f#'	に
8f#L	あ
8anJ	め
=93	=93
4b	あ
8f#L	が
8anJ	り
4b'	に
8bL	い
8ff#J	み
=94	=94
8eeL	こ
8ff#	が
8ee	ふ
8ddnJ	た
4b'	り
8bL	ゆ
8ddJ	う
=95	=95
8eeL	や
16eeL	け
16ddnJJ	の
8eeL	な
16eeL	か
16ddJJ	に
8eeL	す
16eeL	う
16ddJJ	こ
8eeL	ま
16eeL	れ
16ddJJ	て
=96	=96
8bL	き
8ddn	れ
8b	て
8anJ	え
4b'	た
4r	.
=97	=97
1r	.
=98	=98
1r	.
=99	=99
1r	.
=100	=100
1r	.
=101	=101
1r	.
=102	=102
1r	.
=103	=103
1r	.
=104	=104
1r	.
=105	=105
4b	ひ
8r	.
8ddn	が
4b	く
8an'L	れ
16f#L	て
16f#JJ	よ
=106	=106
8eL	る
8f#	が
8dn	あ
8eJ	け
4f#'	て
4r	.
=107	=107
4e	あ
8dnL	そ
8e'J	び
8eL	つ
8e	か
8d	れ
8e'J	て
=108	=108
8eL	つ
8dnJ	か
4e'	ま
4f#	て
4r	.
=109	=109
8BL	こ
8B	ん
8f#	な
8f#'J	せ
8eL	か
8e	い
8an'	ぼ
8b'J	く
=110	=110
8f#'L	と
8an'	き
8e	み
8f#J	い
16dnKL	が
8.d'J	い
8dL	み
8dJ	ん
=111	=111
4e	な
8eL	い
8f#J	な
8anL	く
8f#	な
8e	れ
8dnJ	ば
=112	=112
4e	い
8eL	の
8dnJ	に
4f#'	な
8dL	み
8dJ	ん
=113	=113
4e'	な
8eL	い
8f#'J	な
8anL	く
8f#	な
8a	れ
8bJ	ば
=114	=114
4a#	い
8a#L	の
8bJ	に
[8cc#L	な
32cc#KL]	.
16cc#JJ	あ
64r	.
[64cc#	あ
32cc#]	.
32r	.
64r	.
32.cc#	あ
32r	.
16.cc#'	あ
=115	=115
2r	.
4f#	し
4an	ら
=116	=116
8bL	な
8b	い
8f#	し
8anJ	ら
16.bLL	な
[32bK	い
16b]	.
16bJJ	こ
8aL	え
8f#J	が
=117	=117
8.eL	き
16dnJk	こ
8eL	え
8f#J	て
4d'	さ
8BL	ぼ
8dJ	く
=118	=118
4e	と
8eL	き
8f#J	み
8an'L	い
8f#	が
8e	い
8dnJ	の
=119	=119
16eKL	ぜ
8.e'J	ん
4dn	じ
4f#'	ぶ
8f#L	あ
8anJ	ら
=120	=120
8bL	か
8b	う
8f#	ま
8anJ	も
8bL	な
8b'	く
8b	て
8ff#J	お
=121	=121
8ee'L	ひ
8ff#	か
8ee	れ
8ddnJ	て
4b'	さ
8bL	ゆ
8ddJ	う
=122	=122
8eeL	や
16eeL	け
16ddnJJ	の
8eeL	な
16eeL	か
16ddJJ	に
8eeL	す
16eeL	う
16ddJJ	こ
8eeL	ま
16eeL	れ
16ddJJ	て
=123	=123
8bL	き
8ddn	れ
8b	て
8anJ	え
4b'	た
8f#L	し
8aJ	ら
=124	=124
8bL	な
8b	い
8f#	し
8anJ	ら
16.bLL	な
[32bK	い
16b]	.
16bJJ	ぼ
8aL	く
8f#J	わ
=125	=125
8eL	な
16eL	に
16dnJJ	も
8eL	し
8f#J	ら
16dKL	な
8.d'J	い
8BL	こ
8dJ	れ
=126	=126
4e	か
8eL	れ
8f#J	の
8anL	こ
8f#	と
8e'	も
8dnJ	き
=127	=127
4e	み
8eL	の
8dnJ	な
4f#'	も
8f#L	い
8anJ	ま
=128	=128
4b	わ
8f#L	い
8anJ	ま
4b'	わ
8bL	こ
8ff#J	れ
=129	=129
8eeL	で
8ff#	い
8ee	ん
8ddnJ	だ
4b'	と
8bL	た
8ddJ	だ
=130	=130
16eeLL	ほ
16ee	ん
16ee	と
16ddnJJ	に
16eeLL	ほ
16ee	ん
16ee	と
16ddJJ	に
16eeLL	ほ
16ee	ん
16ee	と
16ddJJ	に
16eeLL	ほ
16ee	ん
16ee	と
16ddJJ	に
=131	=131
8bL	お
8ddn	も
8b	う
8anJ	ん
4b'	だ
8f#L	し
8aJ	ら
=132	=132
8bL	な
8b	い
8f#	し
8anJ	ら
16.bLL	な
[32bK	い
16bJJ]	.
16r	.
8bL	あ
8ff#J	の
=133	=133
8eeL	み
8ff#	み
8ee	な
8ddnJ	り
4b	わ
8bL	ゆ
8ddJ	う
=134	=134
8eeL	や
16eeL	け
16ddnJJ	の
8eeL	な
16eeL	か
16ddJJ	に
8eeL	す
16eeL	う
16ddJJ	こ
8eeL	ま
16eeL	れ
16ddJJ	て
=135	=135
8bL	き
8ddn	れ
8b	て
8anJ	え
4b'	た
4r	.
==	==
*-	*-
